icon-themes/breeze_svg/cmd/32/autocontrolfocus.svg

<svg viewBox="0 0 32 32" xmlns="http://www.w3.org/2000/svg"><path d="m4 4v24h15v-1h-14v-18h22v9h1v-14zm16.013672 14.009766.003906 9.990234 3.189453-4.099609h4.792969z" fill="#4d4d4d"/></svg>

<svg xmlns="http://www.w3.org/2000/svg" viewBox="0 0 32 32">
 <path 
     style="fill:#4d4d4d" 
     d="M 4 4 L 4 28 L 19 28 L 19 27 L 5 27 L 5 9 L 27 9 L 27 18 L 28 18 L 28 4 L 4 4 z M 20.013672 18.009766 L 20.017578 28 L 23.207031 23.900391 L 28 23.900391 L 20.013672 18.009766 z "
     />
</svg>
